Frontend/dist/icon1.svg

<svg width="117" height="118" viewBox="0 0 117 118" fill="none" xmlns="http://www.w3.org/2000/svg">
<path d="M111.15 97.9453H109.005C108.691 96.4135 108.014 94.9796 107.029 93.7647C106.045 92.5497 104.783 91.5892 103.35 90.9643V80.3953C103.35 77.8095 102.323 75.3295 100.494 73.501C98.6658 71.6725 96.1859 70.6453 93.6 70.6453C91.0141 70.6453 88.5342 71.6725 86.7057 73.501C84.8772 75.3295 83.85 77.8095 83.85 80.3953V90.9643C82.4167 91.5892 81.1547 92.5497 80.1705 93.7647C79.1863 94.9796 78.5088 96.4135 78.195 97.9453H76.05C75.1784 97.9505 74.3189 98.1503 73.5345 98.5303C73.3412 98.3343 73.1086 98.1815 72.852 98.0818L83.85 65.4193C83.9467 65.1261 83.9724 64.814 83.9249 64.5089C83.8774 64.2038 83.7582 63.9143 83.577 63.6643C83.3882 63.3985 83.1358 63.1842 82.8428 63.0412C82.5499 62.8981 82.2257 62.8307 81.9 62.8453H76.05V58.9453H87.75C88.2672 58.9453 88.7632 58.7399 89.1289 58.3742C89.4946 58.0085 89.7 57.5125 89.7 56.9953C89.7 56.4781 89.4946 55.9822 89.1289 55.6165C88.7632 55.2508 88.2672 55.0453 87.75 55.0453H76.05V45.2953C76.0587 42.8453 75.1446 40.4818 73.4897 38.6751C71.8348 36.8685 69.5604 35.7511 67.119 35.5453C69.0746 33.4154 70.1721 30.6367 70.2 27.7453V21.8953C71.4109 20.9871 72.3937 19.8095 73.0707 18.4556C73.7476 17.1018 74.1 15.609 74.1 14.0953C74.1 13.5781 73.8946 13.0822 73.5289 12.7165C73.1632 12.3508 72.6672 12.1453 72.15 12.1453H56.55C53.9641 12.1453 51.4842 13.1725 49.6557 15.001C47.8272 16.8295 46.8 19.3095 46.8 21.8953V27.7453C46.8279 30.6367 47.9254 33.4154 49.881 35.5453C47.4396 35.7511 45.1652 36.8685 43.5103 38.6751C41.8554 40.4818 40.9413 42.8453 40.95 45.2953V47.2453C40.95 47.7625 41.1554 48.2585 41.5211 48.6242C41.8868 48.9899 42.3828 49.1953 42.9 49.1953C43.4172 49.1953 43.9132 48.9899 44.2789 48.6242C44.6446 48.2585 44.85 47.7625 44.85 47.2453V45.2953C44.85 43.7438 45.4663 42.2558 46.5634 41.1587C47.6605 40.0617 49.1485 39.4453 50.7 39.4453H54.132L51.597 41.9608C51.4142 42.1421 51.2692 42.3578 51.1702 42.5954C51.0712 42.833 51.0202 43.0879 51.0202 43.3453C51.0202 43.6027 51.0712 43.8576 51.1702 44.0952C51.2692 44.3329 51.4142 44.5485 51.597 44.7298L57.1155 50.2483C57.2968 50.4311 57.5125 50.5762 57.7501 50.6752C57.9877 50.7742 58.2426 50.8251 58.5 50.8251C58.7574 50.8251 59.0123 50.7742 59.2499 50.6752C59.4875 50.5762 59.7032 50.4311 59.8845 50.2483L65.403 44.7298C65.5858 44.5485 65.7308 44.3329 65.8298 44.0952C65.9288 43.8576 65.9798 43.6027 65.9798 43.3453C65.9798 43.0879 65.9288 42.833 65.8298 42.5954C65.7308 42.3578 65.5858 42.1421 65.403 41.9608L62.868 39.4453H66.3C67.8515 39.4453 69.3395 40.0617 70.4366 41.1587C71.5337 42.2558 72.15 43.7438 72.15 45.2953V62.8453H68.25V56.9953C68.25 56.4781 68.0446 55.9822 67.6789 55.6165C67.3132 55.2508 66.8172 55.0453 66.3 55.0453H50.7C50.1828 55.0453 49.6868 55.2508 49.3211 55.6165C48.9554 55.9822 48.75 56.4781 48.75 56.9953V62.8453H44.85V55.0453C44.85 54.5281 44.6446 54.0322 44.2789 53.6665C43.9132 53.3008 43.4172 53.0953 42.9 53.0953C42.3828 53.0953 41.8868 53.3008 41.5211 53.6665C41.1554 54.0322 40.95 54.5281 40.95 55.0453H5.85C5.33283 55.0453 4.83684 54.8399 4.47114 54.4742C4.10545 54.1085 3.9 53.6125 3.9 53.0953V10.1953C3.9 8.6438 4.51634 7.15583 5.61343 6.05874C6.71051 4.96165 8.19848 4.34531 9.75 4.34531H21.45C21.9672 4.34531 22.4632 4.13987 22.8289 3.77417C23.1946 3.40847 23.4 2.91248 23.4 2.39531C23.4 1.87814 23.1946 1.38215 22.8289 1.01645C22.4632 0.650758 21.9672 0.445313 21.45 0.445312H9.75C7.16414 0.445313 4.68419 1.47254 2.85571 3.30102C1.02723 5.1295 0 7.60945 0 10.1953V53.0953C0 54.6468 0.616338 56.1348 1.71343 57.2319C2.81051 58.329 4.29848 58.9453 5.85 58.9453H40.95V62.8453H35.1C34.7906 62.8467 34.486 62.9218 34.2114 63.0642C33.9368 63.2066 33.6999 63.4123 33.5205 63.6643C33.3393 63.9143 33.2201 64.2038 33.1726 64.5089C33.1251 64.814 33.1508 65.1261 33.2475 65.4193L44.148 98.0818C43.8914 98.1815 43.6588 98.3343 43.4655 98.5303C42.6811 98.1503 41.8216 97.9505 40.95 97.9453H38.805C38.4129 96.0418 37.4608 94.2988 36.0709 92.9403C34.6811 91.5817 32.917 90.6695 31.005 90.3208C32.3868 88.616 33.1437 86.4898 33.15 84.2953C33.15 81.7095 32.1228 79.2295 30.2943 77.401C28.4658 75.5725 25.9859 74.5453 23.4 74.5453C20.8141 74.5453 18.3342 75.5725 16.5057 77.401C14.6772 79.2295 13.65 81.7095 13.65 84.2953C13.6563 86.4898 14.4132 88.616 15.795 90.3208C13.883 90.6695 12.1189 91.5817 10.7291 92.9403C9.33924 94.2988 8.38715 96.0418 7.995 97.9453H5.85C4.29848 97.9453 2.81051 98.5617 1.71343 99.6587C0.616338 100.756 0 102.244 0 103.795V115.495C0 116.012 0.205446 116.508 0.571142 116.874C0.936838 117.24 1.43283 117.445 1.95 117.445C2.46717 117.445 2.96316 117.24 3.32886 116.874C3.69455 116.508 3.9 116.012 3.9 115.495V109.645H7.8V115.495C7.8 116.012 8.00545 116.508 8.37114 116.874C8.73684 117.24 9.23283 117.445 9.75 117.445H37.05C37.5672 117.445 38.0632 117.24 38.4289 116.874C38.7946 116.508 39 116.012 39 115.495V109.645H42.9V115.495C42.9 116.012 43.1054 116.508 43.4711 116.874C43.8368 117.24 44.3328 117.445 44.85 117.445C45.3672 117.445 45.8632 117.24 46.2289 116.874C46.5946 116.508 46.8 116.012 46.8 115.495V109.645H50.7C51.2172 109.645 51.7132 109.44 52.0789 109.074C52.4446 108.708 52.65 108.212 52.65 107.695C52.65 107.178 52.4446 106.682 52.0789 106.316C51.7132 105.951 51.2172 105.745 50.7 105.745H46.8V101.845H70.2V105.745H58.5C57.9828 105.745 57.4868 105.951 57.1211 106.316C56.7554 106.682 56.55 107.178 56.55 107.695C56.55 108.212 56.7554 108.708 57.1211 109.074C57.4868 109.44 57.9828 109.645 58.5 109.645H70.2V115.495C70.2 116.012 70.4054 116.508 70.7711 116.874C71.1368 117.24 71.6328 117.445 72.15 117.445C72.6672 117.445 73.1632 117.24 73.5289 116.874C73.8946 116.508 74.1 116.012 74.1 115.495V109.645H78V115.495C78 116.012 78.2054 116.508 78.5711 116.874C78.9368 117.24 79.4328 117.445 79.95 117.445H107.25C107.767 117.445 108.263 117.24 108.629 116.874C108.995 116.508 109.2 116.012 109.2 115.495V109.645H113.1V115.495C113.1 116.012 113.305 116.508 113.671 116.874C114.037 117.24 114.533 117.445 115.05 117.445C115.567 117.445 116.063 117.24 116.429 116.874C116.795 116.508 117 116.012 117 115.495V103.795C117 102.244 116.384 100.756 115.287 99.6587C114.189 98.5617 112.702 97.9453 111.15 97.9453ZM66.3 23.8453V27.7453C66.3 29.814 65.4782 31.798 64.0154 33.2607C62.5526 34.7235 60.5687 35.5453 58.5 35.5453C56.4313 35.5453 54.4474 34.7235 52.9846 33.2607C51.5218 31.798 50.7 29.814 50.7 27.7453V23.8453H66.3ZM56.55 16.0453H69.8685C69.4651 17.1864 68.7177 18.1742 67.7293 18.8727C66.741 19.5712 65.5603 19.9459 64.35 19.9453H51.0315C51.4349 18.8043 52.1823 17.8164 53.1707 17.1179C54.1591 16.4194 55.3397 16.0447 56.55 16.0453ZM58.5 46.1143L55.731 43.3453L58.5 40.5763L61.269 43.3453L58.5 46.1143ZM87.75 80.3953C87.75 79.6271 87.9013 78.8664 88.1953 78.1566C88.4893 77.4469 88.9202 76.802 89.4634 76.2587C90.0067 75.7155 90.6515 75.2846 91.3613 74.9906C92.0711 74.6966 92.8318 74.5453 93.6 74.5453C94.3682 74.5453 95.1289 74.6966 95.8387 74.9906C96.5485 75.2846 97.1934 75.7155 97.7366 76.2587C98.2798 76.802 98.7107 77.4469 99.0047 78.1566C99.2987 78.8664 99.45 79.6271 99.45 80.3953V90.1453H87.75V80.3953ZM52.65 58.9453H64.35V62.8453H52.65V58.9453ZM23.4 78.4453C24.557 78.4453 25.6881 78.7884 26.6501 79.4312C27.6121 80.074 28.3619 80.9877 28.8047 82.0566C29.2475 83.1256 29.3633 84.3018 29.1376 85.4366C28.9119 86.5714 28.3547 87.6137 27.5366 88.4319C26.7184 89.25 25.6761 89.8072 24.5413 90.0329C23.4065 90.2586 22.2303 90.1428 21.1613 89.7C20.0924 89.2572 19.1787 88.5074 18.5359 87.5454C17.8931 86.5834 17.55 85.4523 17.55 84.2953C17.55 82.7438 18.1663 81.2558 19.2634 80.1587C20.3605 79.0617 21.8485 78.4453 23.4 78.4453ZM3.9 105.745V103.795C3.9 103.278 4.10545 102.782 4.47114 102.416C4.83684 102.051 5.33283 101.845 5.85 101.845H7.8V105.745H3.9ZM27.3 105.745H17.55C17.0328 105.745 16.5368 105.54 16.1711 105.174C15.8054 104.808 15.6 104.312 15.6 103.795C15.6036 103.536 15.6589 103.28 15.7627 103.042C15.8665 102.804 16.0167 102.59 16.2045 102.411C16.3774 102.228 16.5862 102.084 16.8179 101.987C17.0495 101.889 17.2988 101.841 17.55 101.845H29.25C29.7672 101.845 30.2632 102.051 30.6289 102.416C30.9946 102.782 31.2 103.278 31.2 103.795C31.1964 104.055 31.1411 104.311 31.0373 104.548C30.9335 104.786 30.7833 105.001 30.5955 105.18C30.4226 105.362 30.2138 105.507 29.9822 105.604C29.7505 105.701 29.5012 105.749 29.25 105.745H27.3ZM21.45 109.645H25.35V113.545H21.45V109.645ZM35.1 113.545H29.25V109.645C30.8015 109.645 32.2895 109.029 33.3866 107.932C34.4837 106.835 35.1 105.347 35.1 103.795C35.1 102.244 34.4837 100.756 33.3866 99.6587C32.2895 98.5617 30.8015 97.9453 29.25 97.9453H17.55C15.9985 97.9453 14.5105 98.5617 13.4134 99.6587C12.3163 100.756 11.7 102.244 11.7 103.795C11.7 105.347 12.3163 106.835 13.4134 107.932C14.5105 109.029 15.9985 109.645 17.55 109.645V113.545H11.7V99.8953C11.7 98.3438 12.3163 96.8558 13.4134 95.7587C14.5105 94.6617 15.9985 94.0453 17.55 94.0453H29.25C30.8015 94.0453 32.2895 94.6617 33.3866 95.7587C34.4837 96.8558 35.1 98.3438 35.1 99.8953V113.545ZM39 101.845H40.95C41.4672 101.845 41.9632 102.051 42.3289 102.416C42.6946 102.782 42.9 103.278 42.9 103.795V105.745H39V101.845ZM48.204 97.9453L37.8105 66.7453H79.1895L68.796 97.9453H48.204ZM74.1 105.745V103.795C74.1 103.278 74.3054 102.782 74.6711 102.416C75.0368 102.051 75.5328 101.845 76.05 101.845H78V105.745H74.1ZM97.5 105.745H87.75C87.2328 105.745 86.7368 105.54 86.3711 105.174C86.0054 104.808 85.8 104.312 85.8 103.795C85.8036 103.536 85.8589 103.28 85.9627 103.042C86.0665 102.804 86.2167 102.59 86.4045 102.411C86.5774 102.228 86.7862 102.084 87.0179 101.987C87.2495 101.889 87.4988 101.841 87.75 101.845H99.45C99.9672 101.845 100.463 102.051 100.829 102.416C101.195 102.782 101.4 103.278 101.4 103.795C101.396 104.055 101.341 104.311 101.237 104.548C101.133 104.786 100.983 105.001 100.795 105.18C100.623 105.362 100.414 105.507 100.182 105.604C99.9505 105.701 99.7012 105.749 99.45 105.745H97.5ZM91.65 109.645H95.55V113.545H91.65V109.645ZM105.3 113.545H99.45V109.645C101.002 109.645 102.489 109.029 103.587 107.932C104.684 106.835 105.3 105.347 105.3 103.795C105.3 102.244 104.684 100.756 103.587 99.6587C102.489 98.5617 101.002 97.9453 99.45 97.9453H87.75C86.1985 97.9453 84.7105 98.5617 83.6134 99.6587C82.5163 100.756 81.9 102.244 81.9 103.795C81.9 105.347 82.5163 106.835 83.6134 107.932C84.7105 109.029 86.1985 109.645 87.75 109.645V113.545H81.9V99.8953C81.9 98.3438 82.5163 96.8558 83.6134 95.7587C84.7105 94.6617 86.1985 94.0453 87.75 94.0453H99.45C101.002 94.0453 102.489 94.6617 103.587 95.7587C104.684 96.8558 105.3 98.3438 105.3 99.8953V113.545ZM109.2 101.845H111.15C111.667 101.845 112.163 102.051 112.529 102.416C112.895 102.782 113.1 103.278 113.1 103.795V105.745H109.2V101.845Z" fill="#F79009"/>
<path d="M107.251 0.445312H29.2508C28.7336 0.445313 28.2376 0.650758 27.8719 1.01645C27.5062 1.38215 27.3008 1.87814 27.3008 2.39531C27.3008 2.91248 27.5062 3.40847 27.8719 3.77417C28.2376 4.13987 28.7336 4.34531 29.2508 4.34531H107.251C108.802 4.34531 110.29 4.96165 111.387 6.05874C112.484 7.15583 113.101 8.6438 113.101 10.1953V53.0953C113.101 53.6125 112.895 54.1085 112.53 54.4742C112.164 54.8399 111.668 55.0453 111.151 55.0453H95.5508C95.0336 55.0453 94.5376 55.2508 94.1719 55.6165C93.8062 55.9822 93.6008 56.4781 93.6008 56.9953C93.6008 57.5125 93.8062 58.0085 94.1719 58.3742C94.5376 58.7399 95.0336 58.9453 95.5508 58.9453H111.151C112.702 58.9453 114.19 58.329 115.287 57.2319C116.384 56.1348 117.001 54.6468 117.001 53.0953V10.1953C117.001 7.60945 115.974 5.1295 114.145 3.30102C112.317 1.47254 109.837 0.445313 107.251 0.445312Z" fill="#F79009"/>
<path d="M58.5004 70.6455C57.3434 70.6455 56.2123 70.9886 55.2503 71.6314C54.2883 72.2742 53.5385 73.1879 53.0957 74.2568C52.6529 75.3258 52.5371 76.502 52.7628 77.6368C52.9885 78.7716 53.5457 79.8139 54.3638 80.6321C55.182 81.4502 56.2243 82.0074 57.3591 82.2331C58.4939 82.4588 59.6701 82.343 60.7391 81.9002C61.808 81.4574 62.7217 80.7076 63.3645 79.7456C64.0073 78.7836 64.3504 77.6525 64.3504 76.4955C64.3504 74.944 63.7341 73.456 62.637 72.3589C61.5399 71.2618 60.0519 70.6455 58.5004 70.6455ZM58.5004 78.4455C58.1147 78.4455 57.7377 78.3311 57.417 78.1169C57.0964 77.9026 56.8464 77.5981 56.6988 77.2417C56.5512 76.8854 56.5126 76.4933 56.5879 76.1151C56.6631 75.7368 56.8488 75.3894 57.1215 75.1166C57.3942 74.8439 57.7417 74.6582 58.12 74.583C58.4982 74.5077 58.8903 74.5464 59.2466 74.6939C59.6029 74.8415 59.9075 75.0915 60.1218 75.4121C60.336 75.7328 60.4504 76.1098 60.4504 76.4955C60.4504 77.0127 60.2449 77.5087 59.8793 77.8744C59.5136 78.2401 59.0176 78.4455 58.5004 78.4455Z" fill="#F79009"/>
<path d="M62.4004 86.2451H54.6004C54.0832 86.2451 53.5872 86.4506 53.2215 86.8163C52.8558 87.182 52.6504 87.6779 52.6504 88.1951C52.6504 88.7123 52.8558 89.2083 53.2215 89.574C53.5872 89.9397 54.0832 90.1451 54.6004 90.1451H62.4004C62.9176 90.1451 63.4136 89.9397 63.7792 89.574C64.1449 89.2083 64.3504 88.7123 64.3504 88.1951C64.3504 87.6779 64.1449 87.182 63.7792 86.8163C63.4136 86.4506 62.9176 86.2451 62.4004 86.2451Z" fill="#F79009"/>
<path d="M42.8992 14.0955C42.8992 13.5783 42.6938 13.0823 42.3281 12.7166C41.9624 12.351 41.4664 12.1455 40.9492 12.1455H13.6492C13.132 12.1455 12.6361 12.351 12.2704 12.7166C11.9047 13.0823 11.6992 13.5783 11.6992 14.0955C11.6992 14.6127 11.9047 15.1087 12.2704 15.4744C12.6361 15.8401 13.132 16.0455 13.6492 16.0455H40.9492C41.4664 16.0455 41.9624 15.8401 42.3281 15.4744C42.6938 15.1087 42.8992 14.6127 42.8992 14.0955Z" fill="#F79009"/>
<path d="M13.6492 31.6453H21.4492C21.9664 31.6453 22.4624 31.4399 22.8281 31.0742C23.1938 30.7085 23.3992 30.2125 23.3992 29.6953V21.8953C23.3992 21.3781 23.1938 20.8822 22.8281 20.5165C22.4624 20.1508 21.9664 19.9453 21.4492 19.9453H13.6492C13.132 19.9453 12.6361 20.1508 12.2704 20.5165C11.9047 20.8822 11.6992 21.3781 11.6992 21.8953V29.6953C11.6992 30.2125 11.9047 30.7085 12.2704 31.0742C12.6361 31.4399 13.132 31.6453 13.6492 31.6453ZM15.5992 23.8453H19.4992V27.7453H15.5992V23.8453Z" fill="#F79009"/>
<path d="M39.0008 29.6953V21.8953C39.0008 21.3781 38.7953 20.8822 38.4296 20.5165C38.0639 20.1508 37.568 19.9453 37.0508 19.9453H29.2508C28.7336 19.9453 28.2376 20.1508 27.8719 20.5165C27.5062 20.8822 27.3008 21.3781 27.3008 21.8953V29.6953C27.3008 30.2125 27.5062 30.7085 27.8719 31.0742C28.2376 31.4399 28.7336 31.6453 29.2508 31.6453H37.0508C37.568 31.6453 38.0639 31.4399 38.4296 31.0742C38.7953 30.7085 39.0008 30.2125 39.0008 29.6953ZM35.1008 27.7453H31.2008V23.8453H35.1008V27.7453Z" fill="#F79009"/>
<path d="M33.1492 35.5454H13.6492C13.132 35.5454 12.6361 35.7509 12.2704 36.1166C11.9047 36.4822 11.6992 36.9782 11.6992 37.4954C11.6992 38.0126 11.9047 38.5086 12.2704 38.8743C12.6361 39.24 13.132 39.4454 13.6492 39.4454H33.1492C33.6664 39.4454 34.1624 39.24 34.5281 38.8743C34.8938 38.5086 35.0992 38.0126 35.0992 37.4954C35.0992 36.9782 34.8938 36.4822 34.5281 36.1166C34.1624 35.7509 33.6664 35.5454 33.1492 35.5454Z" fill="#F79009"/>
<path d="M33.1492 43.3452H13.6492C13.132 43.3452 12.6361 43.5507 12.2704 43.9164C11.9047 44.2821 11.6992 44.778 11.6992 45.2952C11.6992 45.8124 11.9047 46.3084 12.2704 46.6741C12.6361 47.0398 13.132 47.2452 13.6492 47.2452H33.1492C33.6664 47.2452 34.1624 47.0398 34.5281 46.6741C34.8938 46.3084 35.0992 45.8124 35.0992 45.2952C35.0992 44.778 34.8938 44.2821 34.5281 43.9164C34.1624 43.5507 33.6664 43.3452 33.1492 43.3452Z" fill="#F79009"/>
<path d="M83.8504 16.0455H103.35C103.868 16.0455 104.364 15.8401 104.729 15.4744C105.095 15.1087 105.3 14.6127 105.3 14.0955C105.3 13.5783 105.095 13.0823 104.729 12.7166C104.364 12.351 103.868 12.1455 103.35 12.1455H83.8504C83.3332 12.1455 82.8372 12.351 82.4715 12.7166C82.1058 13.0823 81.9004 13.5783 81.9004 14.0955C81.9004 14.6127 82.1058 15.1087 82.4715 15.4744C82.8372 15.8401 83.3332 16.0455 83.8504 16.0455Z" fill="#F79009"/>
<path d="M83.8504 23.8453H103.35C103.868 23.8453 104.364 23.6399 104.729 23.2742C105.095 22.9085 105.3 22.4125 105.3 21.8953C105.3 21.3781 105.095 20.8822 104.729 20.5165C104.364 20.1508 103.868 19.9453 103.35 19.9453H83.8504C83.3332 19.9453 82.8372 20.1508 82.4715 20.5165C82.1058 20.8822 81.9004 21.3781 81.9004 21.8953C81.9004 22.4125 82.1058 22.9085 82.4715 23.2742C82.8372 23.6399 83.3332 23.8453 83.8504 23.8453Z" fill="#F79009"/>
<path d="M83.8504 31.6451H103.35C103.868 31.6451 104.364 31.4397 104.729 31.074C105.095 30.7083 105.3 30.2123 105.3 29.6951C105.3 29.1779 105.095 28.682 104.729 28.3163C104.364 27.9506 103.868 27.7451 103.35 27.7451H83.8504C83.3332 27.7451 82.8372 27.9506 82.4715 28.3163C82.1058 28.682 81.9004 29.1779 81.9004 29.6951C81.9004 30.2123 82.1058 30.7083 82.4715 31.074C82.8372 31.4397 83.3332 31.6451 83.8504 31.6451Z" fill="#F79009"/>
<path d="M82.875 44.3202C82.875 45.4772 83.2181 46.6083 83.8609 47.5703C84.5037 48.5323 85.4174 49.2821 86.4863 49.7249C87.5553 50.1677 88.7315 50.2835 89.8663 50.0578C91.0011 49.8321 92.0434 49.2749 92.8616 48.4568C93.6797 47.6387 94.2369 46.5963 94.4626 45.4615C94.6883 44.3267 94.5725 43.1505 94.1297 42.0815C93.6869 41.0126 92.9371 40.0989 91.9751 39.4561C91.0131 38.8133 89.882 38.4702 88.725 38.4702C87.1735 38.4702 85.6855 39.0866 84.5884 40.1836C83.4913 41.2807 82.875 42.7687 82.875 44.3202ZM90.675 44.3202C90.675 44.7059 90.5606 45.0829 90.3464 45.4036C90.1321 45.7243 89.8275 45.9742 89.4712 46.1218C89.1149 46.2694 88.7228 46.308 88.3446 46.2327C87.9663 46.1575 87.6189 45.9718 87.3461 45.6991C87.0734 45.4264 86.8877 45.0789 86.8125 44.7006C86.7372 44.3224 86.7758 43.9303 86.9234 43.574C87.071 43.2177 87.321 42.9131 87.6416 42.6988C87.9623 42.4846 88.3393 42.3702 88.725 42.3702C89.2422 42.3702 89.7382 42.5757 90.1039 42.9414C90.4696 43.3071 90.675 43.803 90.675 44.3202Z" fill="#F79009"/>
<path d="M103.35 35.5454C102.833 35.5454 102.337 35.7509 101.972 36.1166C101.606 36.4822 101.4 36.9782 101.4 37.4954V49.1954C101.4 49.7126 101.606 50.2086 101.972 50.5743C102.337 50.94 102.833 51.1454 103.35 51.1454C103.868 51.1454 104.364 50.94 104.729 50.5743C105.095 50.2086 105.3 49.7126 105.3 49.1954V37.4954C105.3 36.9782 105.095 36.4822 104.729 36.1166C104.364 35.7509 103.868 35.5454 103.35 35.5454Z" fill="#F79009"/>
</svg>

<svg width="117" height="118" fill="none" xmlns="http://www.w3.org/2000/svg"><path d="M111.15 97.945h-2.145a9.744 9.744 0 0 0-5.655-6.98v-10.57a9.748 9.748 0 0 0-9.75-9.75 9.75 9.75 0 0 0-9.75 9.75v10.57a9.75 9.75 0 0 0-5.655 6.98H76.05a5.85 5.85 0 0 0-2.516.585 1.95 1.95 0 0 0-.682-.448L83.85 65.419a1.95 1.95 0 0 0-.273-1.755 1.95 1.95 0 0 0-1.677-.819h-5.85v-3.9h11.7a1.95 1.95 0 1 0 0-3.9h-11.7v-9.75a9.75 9.75 0 0 0-8.931-9.75 11.7 11.7 0 0 0 3.081-7.8v-5.85a9.75 9.75 0 0 0 3.9-7.8 1.95 1.95 0 0 0-1.95-1.95h-15.6a9.75 9.75 0 0 0-9.75 9.75v5.85a11.7 11.7 0 0 0 3.081 7.8 9.75 9.75 0 0 0-8.931 9.75v1.95a1.95 1.95 0 1 0 3.9 0v-1.95a5.85 5.85 0 0 1 5.85-5.85h3.432l-2.535 2.516a1.95 1.95 0 0 0 0 2.769l5.518 5.518a1.95 1.95 0 0 0 2.77 0l5.518-5.518a1.949 1.949 0 0 0 0-2.77l-2.535-2.515H66.3a5.85 5.85 0 0 1 5.85 5.85v17.55h-3.9v-5.85a1.95 1.95 0 0 0-1.95-1.95H50.7a1.95 1.95 0 0 0-1.95 1.95v5.85h-3.9v-7.8a1.95 1.95 0 1 0-3.9 0H5.85a1.95 1.95 0 0 1-1.95-1.95v-42.9a5.85 5.85 0 0 1 5.85-5.85h11.7a1.95 1.95 0 1 0 0-3.9H9.75A9.75 9.75 0 0 0 0 10.195v42.9a5.85 5.85 0 0 0 5.85 5.85h35.1v3.9H35.1a1.95 1.95 0 0 0-1.58.82 1.95 1.95 0 0 0-.273 1.754l10.901 32.663c-.257.1-.49.252-.683.448a5.85 5.85 0 0 0-2.515-.585h-2.145a9.75 9.75 0 0 0-7.8-7.624 9.613 9.613 0 0 0 2.145-6.026 9.75 9.75 0 0 0-19.5 0 9.613 9.613 0 0 0 2.145 6.026 9.75 9.75 0 0 0-7.8 7.624H5.85a5.85 5.85 0 0 0-5.85 5.85v11.7a1.951 1.951 0 0 0 3.9 0v-5.85h3.9v5.85a1.951 1.951 0 0 0 1.95 1.95h27.3a1.949 1.949 0 0 0 1.95-1.95v-5.85h3.9v5.85a1.951 1.951 0 0 0 3.9 0v-5.85h3.9a1.949 1.949 0 0 0 1.379-3.329 1.953 1.953 0 0 0-1.379-.571h-3.9v-3.9h23.4v3.9H58.5a1.953 1.953 0 0 0-1.95 1.95 1.951 1.951 0 0 0 1.95 1.95h11.7v5.85a1.951 1.951 0 0 0 3.9 0v-5.85H78v5.85a1.951 1.951 0 0 0 1.95 1.95h27.3a1.95 1.95 0 0 0 1.95-1.95v-5.85h3.9v5.85a1.95 1.95 0 1 0 3.9 0v-11.7a5.85 5.85 0 0 0-5.85-5.85Zm-44.85-74.1v3.9a7.8 7.8 0 1 1-15.6 0v-3.9h15.6Zm-9.75-7.8h13.319a5.85 5.85 0 0 1-5.519 3.9H51.032a5.85 5.85 0 0 1 5.518-3.9Zm1.95 30.07-2.769-2.77 2.769-2.769 2.769 2.77-2.769 2.768Zm29.25 34.28a5.85 5.85 0 0 1 11.7 0v9.75h-11.7v-9.75Zm-35.1-21.45h11.7v3.9h-11.7v-3.9Zm-29.25 19.5a5.85 5.85 0 1 1 0 11.7 5.85 5.85 0 0 1 0-11.7Zm-19.5 27.3v-1.95a1.951 1.951 0 0 1 1.95-1.95H7.8v3.9H3.9Zm23.4 0h-9.75a1.949 1.949 0 0 1-1.95-1.95 1.952 1.952 0 0 1 .604-1.384c.173-.183.382-.327.614-.424.231-.098.48-.146.732-.142h11.7a1.953 1.953 0 0 1 1.95 1.95 1.944 1.944 0 0 1-.604 1.385 1.813 1.813 0 0 1-1.346.565H27.3Zm-5.85 3.9h3.9v3.9h-3.9v-3.9Zm13.65 3.9h-5.85v-3.9a5.85 5.85 0 1 0 0-11.7h-11.7a5.85 5.85 0 0 0 0 11.7v3.9H11.7v-13.65a5.85 5.85 0 0 1 5.85-5.85h11.7a5.85 5.85 0 0 1 5.85 5.85v13.65Zm3.9-11.7h1.95a1.953 1.953 0 0 1 1.95 1.95v1.95H39v-3.9Zm9.204-3.9-10.394-31.2h41.38l-10.394 31.2H48.204Zm25.896 7.8v-1.95a1.951 1.951 0 0 1 1.95-1.95H78v3.9h-3.9Zm23.4 0h-9.75a1.949 1.949 0 0 1-1.95-1.95 1.952 1.952 0 0 1 .605-1.384 1.804 1.804 0 0 1 1.346-.566h11.699a1.954 1.954 0 0 1 1.95 1.95 1.948 1.948 0 0 1-.605 1.385 1.8 1.8 0 0 1-1.345.565H97.5Zm-5.85 3.9h3.9v3.9h-3.9v-3.9Zm13.65 3.9h-5.85v-3.9a5.852 5.852 0 0 0 5.85-5.85 5.85 5.85 0 0 0-5.85-5.85h-11.7a5.85 5.85 0 0 0 0 11.7v3.9H81.9v-13.65a5.85 5.85 0 0 1 5.85-5.85h11.7a5.852 5.852 0 0 1 5.85 5.85v13.65Zm3.9-11.7h1.95a1.95 1.95 0 0 1 1.95 1.95v1.95h-3.9v-3.9Z" fill="#F79009"/><path d="M107.251.445h-78a1.95 1.95 0 1 0 0 3.9h78a5.85 5.85 0 0 1 5.85 5.85v42.9a1.953 1.953 0 0 1-1.95 1.95h-15.6a1.95 1.95 0 0 0 0 3.9h15.6a5.85 5.85 0 0 0 5.85-5.85v-42.9a9.748 9.748 0 0 0-9.75-9.75ZM58.5 70.645a5.85 5.85 0 1 0 0 11.7 5.85 5.85 0 0 0 0-11.7Zm0 7.8a1.95 1.95 0 1 1 0-3.9 1.95 1.95 0 0 1 0 3.9ZM62.4 86.245h-7.8a1.95 1.95 0 0 0 0 3.9h7.8a1.95 1.95 0 1 0 0-3.9Z" fill="#F79009"/><path d="M42.9 14.095a1.95 1.95 0 0 0-1.95-1.95h-27.3a1.95 1.95 0 0 0 0 3.9h27.3a1.95 1.95 0 0 0 1.95-1.95ZM13.65 31.645h7.8a1.95 1.95 0 0 0 1.95-1.95v-7.8a1.95 1.95 0 0 0-1.95-1.95h-7.8a1.95 1.95 0 0 0-1.95 1.95v7.8a1.95 1.95 0 0 0 1.95 1.95Zm1.95-7.8h3.9v3.9h-3.9v-3.9ZM39 29.695v-7.8a1.95 1.95 0 0 0-1.95-1.95h-7.8a1.95 1.95 0 0 0-1.95 1.95v7.8a1.95 1.95 0 0 0 1.95 1.95h7.8a1.95 1.95 0 0 0 1.95-1.95Zm-3.9-1.95h-3.9v-3.9h3.9v3.9ZM33.15 35.545h-19.5a1.95 1.95 0 0 0 0 3.9h19.5a1.95 1.95 0 1 0 0-3.9ZM33.15 43.345h-19.5a1.95 1.95 0 0 0 0 3.9h19.5a1.95 1.95 0 1 0 0-3.9ZM83.85 16.046h19.5a1.948 1.948 0 0 0 1.95-1.95 1.949 1.949 0 0 0-1.95-1.95h-19.5a1.95 1.95 0 0 0 0 3.9ZM83.85 23.845h19.5a1.948 1.948 0 0 0 1.95-1.95 1.948 1.948 0 0 0-1.95-1.95h-19.5a1.95 1.95 0 0 0 0 3.9ZM83.85 31.645h19.5a1.948 1.948 0 0 0 1.95-1.95 1.948 1.948 0 0 0-1.95-1.95h-19.5a1.95 1.95 0 0 0 0 3.9ZM82.875 44.32a5.85 5.85 0 1 0 11.7 0 5.85 5.85 0 0 0-11.7 0Zm7.8 0a1.95 1.95 0 1 1-3.901 0 1.95 1.95 0 0 1 3.901 0ZM103.35 35.545a1.95 1.95 0 0 0-1.95 1.95v11.7a1.95 1.95 0 0 0 3.9 0v-11.7a1.948 1.948 0 0 0-1.95-1.95Z" fill="#F79009"/></svg>
